packages/foundations/assets/icons/functional/images/devices/printer_12.svg

<svg width="12" height="12" viewBox="0 0 12 12" fill="none" xmlns="http://www.w3.org/2000/svg">
<g clip-path="url(#clip0_231_174)">
<path fill-rule="evenodd" clip-rule="evenodd" d="M7.79995 1.20001C8.09995 1.20001 8.39995 1.46401 8.39995 1.80001V2.40001H9.84367C10.425 2.40001 10.8 2.92501 10.8 3.48751V7.29376C10.8 7.87501 10.4437 8.40001 9.84367 8.40001H8.39995V10.2C8.39995 10.5375 8.13745 10.8 7.79995 10.8H4.19995C3.88123 10.8 3.59995 10.575 3.59995 10.2V8.40001H2.15623C1.57495 8.40001 1.19995 7.85626 1.19995 7.29376V3.48751C1.19995 2.92501 1.53745 2.40001 2.15623 2.40001H3.59995V1.80001C3.59995 1.46251 3.88123 1.20001 4.19995 1.20001H7.79995ZM7.19995 7.20001H4.79995V9.60001H7.19995V7.20001ZM9.59995 3.60001H2.39995V7.20001H3.59995V6.60001C3.59995 6.30001 3.89995 6.00001 4.19995 6.00001H7.79995C8.09995 6.00001 8.39995 6.30001 8.39995 6.60001V7.20001H9.59995V3.60001Z" fill="#1A1C1F"/>
</g>
<defs>
<clipPath id="clip0_231_174">
<rect width="12" height="12" fill="white"/>
</clipPath>
</defs>
</svg>

<svg xmlns="http://www.w3.org/2000/svg" width="12" height="12" fill="none"><g clip-path="url(#a)"><path fill="#1A1C1F" fill-rule="evenodd" d="M7.8 1.2c.3 0 .6.264.6.6v.6h1.444c.581 0 .956.525.956 1.088v3.806c0 .581-.356 1.106-.956 1.106H8.4v1.8c0 .338-.263.6-.6.6H4.2a.58.58 0 0 1-.6-.6V8.4H2.156c-.581 0-.956-.544-.956-1.106V3.488c0-.563.337-1.088.956-1.088H3.6v-.6c0-.337.281-.6.6-.6zm-.6 6H4.8v2.4h2.4zm2.4-3.6H2.4v3.6h1.2v-.6c0-.3.3-.6.6-.6h3.6c.3 0 .6.3.6.6v.6h1.2z" clip-rule="evenodd"/></g><defs><clipPath id="a"><path fill="#fff" d="M0 0h12v12H0z"/></clipPath></defs></svg>
